X: 1
T: Little Fishie
M: 3/2
L: 1/8
R: three-two
K: Gmaj
(D2G2 G2){A}G2 F2A2|G2B2 {c}B2B2 c2A2|(3dedB2 {c}B2G2 F2G2|A2B2 c2E2 F4|
(D2G2 G2){A}G2 F2A2|G2B2 {c}B2B2 c2e2|.d2B2 {c}B2G2 AcBd|.c2(E2 E2F2 G4):|
|:d2g2 f2g2 (3dedB2|(A3B c2)d2 B4|d2g2 f2g2 f2g2|e2b2 a2^c2 d4|
d2=f2 (3efed2 =c2B2|(c2ed A2)G2 F2|{e}d2B2 B2G2 AcBd|.c2(E2 E2F2 G4):|
